lib/flags/my-malaysia.svg

<svg xmlns="http://www.w3.org/2000/svg" fill="none" aria-hidden="true" viewBox="0 0 42 30"><g id="Country=MY - Malaysia, Size=sm (36x24)" filter="url(#filter0_dd_91_26242)"><g clip-path="url(#clip0_91_26242)"><g id="flag"><mask id="mask0_91_26242" width="36" height="24" x="3" y="2" maskUnits="userSpaceOnUse" style="mask-type:alpha"><rect id="mask" width="36" height="24" x="3" y="2" fill="white"/></mask><g mask="url(#mask0_91_26242)"><g id="contents"><path id="background" fill="#F7FCFF" fill-rule="evenodd" d="M3 2H39V26H3V2Z" clip-rule="evenodd"/><g id="mark"><rect id="lines" width="36" height="2.9" x="3.03027" y="7" fill="#E31D1C"/><rect id="lines_2" width="36" height="2.9" x="3.03027" y="12.2002" fill="#E31D1C"/><rect id="lines_3" width="36" height="2.5" x="3.12549" y="17.2002" fill="#E31D1C"/><rect id="lines_4" width="36" height="2.7" x="3.12549" y="22.2002" fill="#E31D1C"/><path id="lines_5" fill="#E31D1C" fill-rule="evenodd" d="M3 2H39V4.5H3V2Z" clip-rule="evenodd"/><path id="square" fill="#3D58DB" fill-rule="evenodd" d="M3 2H21V14H3V2Z" clip-rule="evenodd"/><path id="Shape sp-1695-0" fill="#FECA00" fill-rule="evenodd" d="M7.04273 8.20216C7.04273 9.57838 7.77198 10.8798 9.25557 10.8798C11.4815 10.8798 11.9145 10.458 12.9532 9.876C13.1987 10.3663 12.3704 12.4644 9.22519 12.4644C6.7094 12.4194 4.67627 10.6228 4.67627 8.20216C4.67627 5.42364 6.97529 3.9231 9.16206 3.94008C11.0926 3.94008 13.1401 4.91384 13.0774 6.15606C12.1678 5.36622 11.1801 5.36622 9.5359 5.36622C7.89173 5.36622 7.04273 6.82576 7.04273 8.20216Z" clip-rule="evenodd"/><path id="Star 15" fill="#FECA00" fill-rule="evenodd" d="M15.375 9.2998L14.3321 10.653L14.3831 9.01333L12.6446 9.56316L13.7701 8.26333L12 7.7998L13.7701 7.33628L12.6446 6.03645L14.3831 6.58628L14.3321 4.94664L15.375 6.2998L16.4179 4.94664L16.3669 6.58628L18.1054 6.03645L16.9799 7.33628L18.75 7.7998L16.9799 8.26333L18.1054 9.56316L16.3669 9.01333L16.4179 10.653L15.375 9.2998Z" clip-rule="evenodd"/></g></g></g></g></g></g><defs><filter id="filter0_dd_91_26242" width="42" height="30" x="0" y="0" color-interpolation-filters="sRGB" filterUnits="userSpaceOnUse"><feFlood flood-opacity="0" result="BackgroundImageFix"/><feColorMatrix in="SourceAlpha" result="hardAlpha" values="0 0 0 0 0 0 0 0 0 0 0 0 0 0 0 0 0 0 127 0"/><feOffset dy="1"/><feGaussianBlur stdDeviation="1"/><feColorMatrix values="0 0 0 0 0.0627451 0 0 0 0 0.0941176 0 0 0 0 0.156863 0 0 0 0.06 0"/><feBlend in2="BackgroundImageFix" result="effect1_dropShadow_91_26242"/><feColorMatrix in="SourceAlpha" result="hardAlpha" values="0 0 0 0 0 0 0 0 0 0 0 0 0 0 0 0 0 0 127 0"/><feOffset dy="1"/><feGaussianBlur stdDeviation="1.5"/><feColorMatrix values="0 0 0 0 0.0627451 0 0 0 0 0.0941176 0 0 0 0 0.156863 0 0 0 0.1 0"/><feBlend in2="effect1_dropShadow_91_26242" result="effect2_dropShadow_91_26242"/><feBlend in="SourceGraphic" in2="effect2_dropShadow_91_26242" result="shape"/></filter><clipPath id="clip0_91_26242"><rect width="36" height="24" x="3" y="2" fill="white" rx="2"/></clipPath></defs></svg>

<svg xmlns="http://www.w3.org/2000/svg" fill="none" aria-hidden="true" viewBox="0 0 42 30"><g filter="url(#a)"><g clip-path="url(#b)"><mask id="c" width="36" height="24" x="3" y="2" maskUnits="userSpaceOnUse" style="mask-type:alpha"><path fill="#fff" d="M3 2h36v24H3z"/></mask><g mask="url(#c)"><path fill="#F7FCFF" fill-rule="evenodd" d="M3 2h36v24H3V2Z" clip-rule="evenodd"/><path fill="#E31D1C" d="M3.03 7h36v2.9h-36zm0 5.2h36v2.9h-36zm.095 5h36v2.5h-36zm0 5h36v2.7h-36z"/><path fill="#E31D1C" fill-rule="evenodd" d="M3 2h36v2.5H3V2Z" clip-rule="evenodd"/><path fill="#3D58DB" fill-rule="evenodd" d="M3 2h18v12H3V2Z" clip-rule="evenodd"/><path fill="#FECA00" fill-rule="evenodd" d="M7.043 8.202c0 1.376.729 2.678 2.213 2.678 2.226 0 2.659-.422 3.697-1.004.246.49-.583 2.588-3.728 2.588-2.516-.045-4.549-1.841-4.549-4.262 0-2.778 2.3-4.279 4.486-4.262 1.93 0 3.978.974 3.915 2.216-.91-.79-1.897-.79-3.541-.79s-2.493 1.46-2.493 2.836Z" clip-rule="evenodd"/><path fill="#FECA00" fill-rule="evenodd" d="m15.375 9.3-1.043 1.353.051-1.64-1.738.55 1.125-1.3L12 7.8l1.77-.464-1.125-1.3 1.738.55-.05-1.64L15.374 6.3l1.043-1.353-.051 1.64 1.738-.55-1.125 1.3 1.77.463-1.77.463 1.125 1.3-1.738-.55.05 1.64-1.04-1.353Z" clip-rule="evenodd"/></g></g></g><defs><clipPath id="b"><rect width="36" height="24" x="3" y="2" fill="#fff" rx="2"/></clipPath><filter id="a" width="42" height="30" x="0" y="0" color-interpolation-filters="sRGB" filterUnits="userSpaceOnUse"><feFlood flood-opacity="0" result="BackgroundImageFix"/><feColorMatrix in="SourceAlpha" result="hardAlpha" values="0 0 0 0 0 0 0 0 0 0 0 0 0 0 0 0 0 0 127 0"/><feOffset dy="1"/><feGaussianBlur stdDeviation="1"/><feColorMatrix values="0 0 0 0 0.0627451 0 0 0 0 0.0941176 0 0 0 0 0.156863 0 0 0 0.06 0"/><feBlend in2="BackgroundImageFix" result="effect1_dropShadow_91_26242"/><feColorMatrix in="SourceAlpha" result="hardAlpha" values="0 0 0 0 0 0 0 0 0 0 0 0 0 0 0 0 0 0 127 0"/><feOffset dy="1"/><feGaussianBlur stdDeviation="1.5"/><feColorMatrix values="0 0 0 0 0.0627451 0 0 0 0 0.0941176 0 0 0 0 0.156863 0 0 0 0.1 0"/><feBlend in2="effect1_dropShadow_91_26242" result="effect2_dropShadow_91_26242"/><feBlend in="SourceGraphic" in2="effect2_dropShadow_91_26242" result="shape"/></filter></defs></svg>
